_site/images/icons/cloud-computing.svg

<svg height="60" viewBox="0 0 60 60" width="60" xmlns="http://www.w3.org/2000/svg"><g fill="#107775"><path d="m52 48h2v2h-2z"/><path d="m58 54.18v-7.18c-.0049422-1.6548028-1.3451972-2.9950578-3-3h-8c-1.6548028.0049422-2.9950578 1.3451972-3 3v7.18c-1.3649694.4952814-2.1792883 1.897032-1.9333986 3.3281097.2458896 1.4310777 1.4813937 2.480625 2.9333986 2.4918903h12c1.4520049-.0112653 2.687509-1.0608126 2.9333986-2.4918903.2458897-1.4310777-.5684292-2.8328283-1.9333986-3.3281097zm-12-7.18c0-.5522847.4477153-1 1-1h8c.5522847 0 1 .4477153 1 1v7h-10zm11 11h-12c-.5522847 0-1-.4477153-1-1s.4477153-1 1-1h12c.5522847 0 1 .4477153 1 1s-.4477153 1-1 1z"/><path d="m16 51h-2v-3c0-.5522847-.4477153-1-1-1h-5v-1c0-.5522847-.44771525-1-1-1h-6c-.55228475 0-1 .4477153-1 1v13c0 .5522847.44771525 1 1 1h15c.5522847 0 1-.4477153 1-1v-7c0-.5522847-.4477153-1-1-1zm-12 1v6h-2v-11h4v1c0 .5522847.44771525 1 1 1h5v2h-7c-.55228475 0-1 .4477153-1 1zm11 6h-9v-5h9z"/><path d="m38 48c.5522847 0 1-.4477153 1-1v-8c0-.5522847-.4477153-1-1-1h-16c-.5522847 0-1 .4477153-1 1v8c0 .5522847.4477153 1 1 1h1v2h-1c-.5522847 0-1 .4477153-1 1v8c0 .5522847.4477153 1 1 1h16c.5522847 0 1-.4477153 1-1v-8c0-.5522847-.4477153-1-1-1h-1v-2zm-1 10h-14v-6h14zm-12-8v-2h10v2zm-2-4v-6h14v6z"/><path d="m25 42h2v2h-2z"/><path d="m29 42h2v2h-2z"/><path d="m33 42h2v2h-2z"/><path d="m25 54h2v2h-2z"/><path d="m29 54h2v2h-2z"/><path d="m33 54h2v2h-2z"/><path d="m59.34 4.06-11-4c-.2196028-.08002858-.4603972-.08002858-.68 0l-11 4c-.3974668.14115717-.6622114.51821765-.66.94-1.133312-.00191603-2.2566329.21188825-3.31.63-2.9219466-4.25309555-8.0858137-6.37129792-13.1527518-5.39521823s-9.0743789 4.86101517-10.2072482 9.89521823c-5.67620689.8804501-9.71934282 5.9801253-9.28199589 11.707537.43734694 5.7274116 5.20791662 10.1540695 10.95199589 10.162463h30c2.3441613-.0015663 4.6259818-.755163 6.51-2.15.365595.235932.8452684.1904457 1.16-.11l7.08-6.43c2.7051257-2.4672804 4.2475895-5.9586925 4.25-9.62v-8.69c.0022114-.42178235-.2625332-.79884283-.66-.94zm-18.34 25.94h-30c-4.78845158-.0492386-8.69982313-3.8394815-8.89962275-8.6240163-.19979961-4.7845348 3.381948-8.8876864 8.14962275-9.3359837.459702-.0390272.83438-.3848839.91-.84.7500949-4.56165307 4.2765767-8.16513475 8.8209665-9.01357008 4.5443898-.84843534 9.1335244 1.23986474 11.4790335 5.22357008.269643.45662597.8488442.62336572 1.32.38.9941241-.51860949 2.0987336-.78961616 3.22-.79v6.69c.0024105 3.6613075 1.5448743 7.1527196 4.25 9.62l5.71 5.19c-1.4706797.9751198-3.1954189 1.4967143-4.96 1.5zm17-16.31c-.0021484 3.098806-1.3088963 6.0535083-3.6 8.14l-6.4 5.82-6.4-5.82c-2.2911037-2.0864917-3.5978516-5.041194-3.6-8.14v-7.99l10-3.64 10 3.64z"/><path d="m43.707 13.293-1.414 1.414 4 4c.3904999.3903819 1.0235001.3903819 1.414 0l7-7-1.414-1.414-6.293 6.293z"/></g></svg>

<?xml version="1.0" encoding="UTF-8"?>
<svg width="60px" height="60px" viewBox="0 0 60 60" version="1.1" xmlns="http://www.w3.org/2000/svg" xmlns:xlink="http://www.w3.org/1999/xlink">
    <!-- Generator: Sketch 52.6 (67491) - http://www.bohemiancoding.com/sketch -->
    <title>cloud-computing</title>
    <desc>Created with Sketch.</desc>
    <g id="Website" stroke="none" stroke-width="1" fill="none" fill-rule="evenodd">
        <g id="20--Verification" transform="translate(-682.000000, -715.000000)" fill="#107775" fill-rule="nonzero">
            <g id="Group-38" transform="translate(540.000000, 715.000000)">
                <g id="cloud-computing" transform="translate(142.000000, 0.000000)">
                    <polygon id="Path" points="52 48 54 48 54 50 52 50"></polygon>
                    <path d="M58,54.18 L58,47 C57.9950578,45.3451972 56.6548028,44.0049422 55,44 L47,44 C45.3451972,44.0049422 44.0049422,45.3451972 44,47 L44,54.18 C42.6350306,54.6752814 41.8207117,56.077032 42.0666014,57.5081097 C42.312491,58.9391874 43.5479951,59.9887347 45,60 L57,60 C58.4520049,59.9887347 59.687509,58.9391874 59.9333986,57.5081097 C60.1792883,56.077032 59.3649694,54.6752814 58,54.18 Z M46,47 C46,46.4477153 46.4477153,46 47,46 L55,46 C55.5522847,46 56,46.4477153 56,47 L56,54 L46,54 L46,47 Z M57,58 L45,58 C44.4477153,58 44,57.5522847 44,57 C44,56.4477153 44.4477153,56 45,56 L57,56 C57.5522847,56 58,56.4477153 58,57 C58,57.5522847 57.5522847,58 57,58 Z" id="Shape"></path>
                    <path d="M16,51 L14,51 L14,48 C14,47.4477153 13.5522847,47 13,47 L8,47 L8,46 C8,45.4477153 7.55228475,45 7,45 L1,45 C0.44771525,45 0,45.4477153 0,46 L0,59 C0,59.5522847 0.44771525,60 1,60 L16,60 C16.5522847,60 17,59.5522847 17,59 L17,52 C17,51.4477153 16.5522847,51 16,51 Z M4,52 L4,58 L2,58 L2,47 L6,47 L6,48 C6,48.5522847 6.44771525,49 7,49 L12,49 L12,51 L5,51 C4.44771525,51 4,51.4477153 4,52 Z M15,58 L6,58 L6,53 L15,53 L15,58 Z" id="Shape"></path>
                    <path d="M38,48 C38.5522847,48 39,47.5522847 39,47 L39,39 C39,38.4477153 38.5522847,38 38,38 L22,38 C21.4477153,38 21,38.4477153 21,39 L21,47 C21,47.5522847 21.4477153,48 22,48 L23,48 L23,50 L22,50 C21.4477153,50 21,50.4477153 21,51 L21,59 C21,59.5522847 21.4477153,60 22,60 L38,60 C38.5522847,60 39,59.5522847 39,59 L39,51 C39,50.4477153 38.5522847,50 38,50 L37,50 L37,48 L38,48 Z M37,58 L23,58 L23,52 L37,52 L37,58 Z M25,50 L25,48 L35,48 L35,50 L25,50 Z M23,46 L23,40 L37,40 L37,46 L23,46 Z" id="Shape"></path>
                    <polygon id="Path" points="25 42 27 42 27 44 25 44"></polygon>
                    <polygon id="Path" points="29 42 31 42 31 44 29 44"></polygon>
                    <polygon id="Path" points="33 42 35 42 35 44 33 44"></polygon>
                    <polygon id="Path" points="25 54 27 54 27 56 25 56"></polygon>
                    <polygon id="Path" points="29 54 31 54 31 56 29 56"></polygon>
                    <polygon id="Path" points="33 54 35 54 35 56 33 56"></polygon>
                    <path d="M59.34,4.06 L48.34,0.06 C48.1203972,-0.020028582 47.8796028,-0.020028582 47.66,0.06 L36.66,4.06 C36.2625332,4.20115717 35.9977886,4.57821765 36,5 C34.866688,4.99808397 33.7433671,5.21188825 32.69,5.63 C29.7680534,1.37690445 24.6041863,-0.74129792 19.5372482,0.234781769 C14.4703101,1.21086146 10.4628693,5.09579694 9.33,10.13 C3.65379311,11.0104501 -0.389342824,16.1101253 0.0480041138,21.837537 C0.485351052,27.5649486 5.25592073,31.9916065 11,32 L41,32 C43.3441613,31.9984337 45.6259818,31.244837 47.51,29.85 C47.875595,30.085932 48.3552684,30.0404457 48.67,29.74 L55.75,23.31 C58.4551257,20.8427196 59.9975895,17.3513075 60,13.69 L60,5 C60.0022114,4.57821765 59.7374668,4.20115717 59.34,4.06 Z M41,30 L11,30 C6.21154842,29.9507614 2.30017687,26.1605185 2.10037725,21.3759837 C1.90057764,16.5914489 5.48232525,12.4882973 10.25,12.04 C10.709702,12.0009728 11.08438,11.6551161 11.16,11.2 C11.9100949,6.63834693 15.4365767,3.03486525 19.9809665,2.18642992 C24.5253563,1.33799458 29.1144909,3.42629466 31.46,7.41 C31.729643,7.86662597 32.3088442,8.03336572 32.78,7.79 C33.7741241,7.27139051 34.8787336,7.00038384 36,7 L36,13.69 C36.0024105,17.3513075 37.5448743,20.8427196 40.25,23.31 L45.96,28.5 C44.4893203,29.4751198 42.7645811,29.9967143 41,30 Z M58,13.69 C57.9978516,16.788806 56.6911037,19.7435083 54.4,21.83 L48,27.65 L41.6,21.83 C39.3088963,19.7435083 38.0021484,16.788806 38,13.69 L38,5.7 L48,2.06 L58,5.7 L58,13.69 Z" id="Shape"></path>
                    <path d="M43.707,13.293 L42.293,14.707 L46.293,18.707 C46.6834999,19.0973819 47.3165001,19.0973819 47.707,18.707 L54.707,11.707 L53.293,10.293 L47,16.586 L43.707,13.293 Z" id="Path"></path>
                </g>
            </g>
        </g>
    </g>
</svg>
